icons/disco-ball.svg

<?xml version="1.0" encoding="UTF-8"?><svg xmlns="http://www.w3.org/2000/svg" viewBox="0 0 50 50"><g id="uuid-36a40501-c699-403a-84e8-a203cfae4a6f"><g><path d="M8.41,25.61c0,9.15,7.44,16.59,16.59,16.59s16.59-7.44,16.59-16.59c0-7.8-5.42-14.35-12.69-16.11v-2.07c0-.28-.22-.5-.5-.5h-2.91V.85c0-.28-.22-.5-.5-.5s-.5,.22-.5,.5V6.93h-2.91c-.28,0-.5,.22-.5,.5v2.07c-7.27,1.76-12.69,8.31-12.69,16.11Zm15.24-15.53c-1.22,1.21-3.11,3.38-4.55,6.42h-6.73c2.59-3.58,6.64-6.02,11.28-6.42Zm16.89,14.47h-7.48c-.13-2.67-.75-5.03-1.6-7.05h6.84c1.27,2.08,2.07,4.48,2.24,7.05Zm.05,1.05c0,2.52-.61,4.89-1.68,7h-7.03c.72-2.03,1.22-4.35,1.22-6.95,0-.03,0-.07,0-.1h7.49s0,.03,0,.05Zm-31.19,0s0-.03,0-.05h7.62s0,.03,0,.05c0,2.62,.51,4.96,1.24,7h-7.19c-1.06-2.11-1.68-4.48-1.68-7Zm2.3-8.1h6.95c-.84,2.02-1.46,4.38-1.59,7.05h-7.61c.17-2.57,.97-4.97,2.24-7.05Zm12.8-6.86v5.86h-4.28c1.42-2.8,3.18-4.79,4.28-5.86Zm0,6.86v7.05h-6.43c.14-2.69,.79-5.05,1.67-7.05h4.75Zm-6.47,8.1s0-.03,0-.05h6.47v7.05h-5.17c-.77-2.02-1.3-4.36-1.3-7Zm6.47,8v6.87c-1.23-1.19-3.29-3.53-4.76-6.87h4.76Zm1,7.04v-7.04h4.91c-1.52,3.48-3.7,5.89-4.91,7.04Zm0-8.04v-7.05h6.6s0,.06,0,.1c0,2.62-.53,4.94-1.29,6.95h-5.32Zm6.56-8.05h-6.56v-7.05h4.87c.89,2,1.55,4.36,1.69,7.05Zm-6.56-8.05v-5.94c1.08,1.03,2.93,3.05,4.4,5.94h-4.4Zm-6.85,17.1c1.52,3.66,3.75,6.21,5.1,7.53-5.15-.41-9.58-3.33-12.11-7.53h7.01Zm7.79,7.52c1.36-1.34,3.56-3.89,5.06-7.52h6.86c-2.49,4.15-6.85,7.05-11.92,7.52Zm4.58-24.62c-1.46-3.05-3.36-5.22-4.57-6.42,4.6,.42,8.62,2.86,11.19,6.42h-6.62ZM22.09,7.93h5.81v1.36c-.95-.17-1.91-.27-2.91-.27s-1.96,.1-2.91,.27v-1.36Z"/><path d="M15.75,9.75c.09,.16,.26,.25,.43,.25,.08,0,.17-.02,.25-.07,.24-.14,.32-.44,.18-.68l-2.71-4.7c-.14-.24-.45-.32-.68-.18-.24,.14-.32,.44-.18,.68l2.71,4.7Z"/><path d="M4.5,13.75l4.7,2.71c.08,.05,.16,.07,.25,.07,.17,0,.34-.09,.43-.25,.14-.24,.06-.54-.18-.68l-4.7-2.71c-.24-.14-.54-.06-.68,.18s-.06,.54,.18,.68Z"/><path d="M8.92,33.71l-4.7,2.71c-.24,.14-.32,.44-.18,.68,.09,.16,.26,.25,.43,.25,.08,0,.17-.02,.25-.07l4.7-2.71c.24-.14,.32-.44,.18-.68-.14-.24-.45-.32-.68-.18Z"/><path d="M15.95,40.45c-.24-.14-.54-.06-.68,.18l-2.71,4.7c-.14,.24-.06,.54,.18,.68,.08,.05,.16,.07,.25,.07,.17,0,.34-.09,.43-.25l2.71-4.7c.14-.24,.06-.54-.18-.68Z"/><path d="M25,43.22c-.28,0-.5,.22-.5,.5v5.43c0,.28,.22,.5,.5,.5s.5-.22,.5-.5v-5.43c0-.28-.22-.5-.5-.5Z"/><path d="M34.25,40.91c-.14-.24-.45-.32-.68-.18-.24,.14-.32,.44-.18,.68l2.71,4.7c.09,.16,.26,.25,.43,.25,.08,0,.17-.02,.25-.07,.24-.14,.32-.44,.18-.68l-2.71-4.7Z"/><path d="M45.5,36.91l-4.7-2.71c-.24-.14-.55-.06-.68,.18-.14,.24-.06,.54,.18,.68l4.7,2.71c.08,.05,.16,.07,.25,.07,.17,0,.34-.09,.43-.25,.14-.24,.06-.54-.18-.68Z"/><path d="M7.38,25.33c0-.28-.22-.5-.5-.5H1.45c-.28,0-.5,.22-.5,.5s.22,.5,.5,.5H6.88c.28,0,.5-.22,.5-.5Z"/><path d="M48.55,24.83h-5.43c-.28,0-.5,.22-.5,.5s.22,.5,.5,.5h5.43c.28,0,.5-.22,.5-.5s-.22-.5-.5-.5Z"/><path d="M40.83,17.01c.08,0,.17-.02,.25-.07l4.7-2.71c.24-.14,.32-.44,.18-.68-.14-.24-.44-.32-.68-.18l-4.7,2.71c-.24,.14-.32,.44-.18,.68,.09,.16,.26,.25,.43,.25Z"/><path d="M34.05,10.21c.08,.05,.16,.07,.25,.07,.17,0,.34-.09,.43-.25l2.71-4.7c.14-.24,.06-.54-.18-.68-.24-.14-.55-.06-.68,.18l-2.71,4.7c-.14,.24-.06,.54,.18,.68Z"/></g></g><g id="uuid-5fafbc83-7b2f-42ee-8ec1-b4bd7675749b"><text transform="translate(-.03 54.94)" font-family="Roboto-Regular, Roboto" font-size="6"><tspan x="0" y="0">disco-ball</tspan></text></g></svg>

<svg xmlns="http://www.w3.org/2000/svg" viewBox="0 0 50 50"><g id="b753103f-d8bb-417f-bf65-62be115d396a" data-name="ICONS"><path d="M8.41,25.61A16.59,16.59,0,1,0,28.91,9.5V7.43a.5.5,0,0,0-.5-.5H25.5V.85a.5.5,0,0,0-1,0V6.93H21.59a.5.5,0,0,0-.5.5V9.5A16.6,16.6,0,0,0,8.41,25.61ZM23.65,10.08A23.47,23.47,0,0,0,19.1,16.5H12.37A15.55,15.55,0,0,1,23.65,10.08ZM40.54,24.55H33.06a20.81,20.81,0,0,0-1.6-7H38.3A15.5,15.5,0,0,1,40.54,24.55Zm.05,1.06a15.41,15.41,0,0,1-1.68,7h-7a20.43,20.43,0,0,0,1.22-7,.33.33,0,0,0,0-.1h7.49Zm-31.18,0v-.06H17v.06a21,21,0,0,0,1.24,7H11.09A15.41,15.41,0,0,1,9.41,25.61ZM11.7,17.5h7a20.81,20.81,0,0,0-1.59,7.05H9.46A15.5,15.5,0,0,1,11.7,17.5Zm12.8-6.85V16.5H20.22A22.08,22.08,0,0,1,24.5,10.65Zm0,6.85v7.05H18.07a19.8,19.8,0,0,1,1.68-7ZM18,25.61v-.06H24.5v7.06H19.33A20,20,0,0,1,18,25.61Zm6.47,8v6.86a22.27,22.27,0,0,1-4.76-6.86Zm1,7v-7h4.91A22.22,22.22,0,0,1,25.5,40.65Zm0-8V25.55h6.6a.33.33,0,0,1,0,.1,19.53,19.53,0,0,1-1.28,7Zm6.56-8.06H25.5v-7h4.87A19.8,19.8,0,0,1,32.06,24.55Zm-6.56-8V10.56a22.4,22.4,0,0,1,4.4,5.94ZM18.65,33.61a23.54,23.54,0,0,0,5.1,7.53,15.59,15.59,0,0,1-12.11-7.53Zm7.79,7.52a23.16,23.16,0,0,0,5.06-7.52h6.86A15.59,15.59,0,0,1,26.44,41.13ZM31,16.5a23.15,23.15,0,0,0-4.58-6.41A15.54,15.54,0,0,1,37.63,16.5ZM22.09,7.93h5.82V9.28A17.49,17.49,0,0,0,25,9a17.49,17.49,0,0,0-2.91.27Z"/><path d="M15.75,9.75a.5.5,0,0,0,.43.25.45.45,0,0,0,.25-.07.5.5,0,0,0,.19-.68L13.9,4.55a.5.5,0,0,0-.86.5Z"/><path d="M4.5,13.75l4.7,2.71a.45.45,0,0,0,.25.07.5.5,0,0,0,.25-.93L5,12.88a.5.5,0,1,0-.5.87Z"/><path d="M8.92,33.71l-4.7,2.72a.5.5,0,0,0,.25.93.47.47,0,0,0,.25-.07l4.7-2.71a.49.49,0,0,0,.18-.68A.51.51,0,0,0,8.92,33.71Z"/><path d="M16,40.45a.49.49,0,0,0-.68.18l-2.72,4.7a.51.51,0,0,0,.18.69.57.57,0,0,0,.25.06.5.5,0,0,0,.44-.25l2.71-4.7A.49.49,0,0,0,16,40.45Z"/><path d="M25,43.22a.5.5,0,0,0-.5.5v5.43a.5.5,0,1,0,1,0V43.72A.5.5,0,0,0,25,43.22Z"/><path d="M34.25,40.91a.5.5,0,0,0-.68-.18.51.51,0,0,0-.19.68l2.72,4.7a.5.5,0,0,0,.43.25.45.45,0,0,0,.25-.07.49.49,0,0,0,.18-.68Z"/><path d="M45.5,36.91,40.8,34.2a.5.5,0,1,0-.5.86L45,37.78a.59.59,0,0,0,.25.07.52.52,0,0,0,.44-.25A.52.52,0,0,0,45.5,36.91Z"/><path d="M7.38,25.33a.5.5,0,0,0-.5-.5H1.45a.5.5,0,1,0,0,1H6.88A.5.5,0,0,0,7.38,25.33Z"/><path d="M48.55,24.83H43.12a.5.5,0,1,0,0,1h5.43a.5.5,0,0,0,0-1Z"/><path d="M40.83,17a.54.54,0,0,0,.25-.06l4.7-2.72a.5.5,0,1,0-.5-.86l-4.7,2.71a.5.5,0,0,0,.25.93Z"/><path d="M34.05,10.21a.45.45,0,0,0,.25.07.5.5,0,0,0,.43-.25l2.72-4.7a.5.5,0,0,0-.18-.68.51.51,0,0,0-.69.18l-2.71,4.7A.49.49,0,0,0,34.05,10.21Z"/></g><g id="a0a26d81-55d2-4e0b-9fec-2a01998da02d" data-name="LABELS"><text transform="translate(-0.03 54.94)" font-size="6" font-family="Roboto-Regular, Roboto">disco-ball</text></g></svg>
